Dominus_Funeral/22/devices/auth-smartcard.svg

<svg xmlns="http://www.w3.org/2000/svg" width="24" height="24" viewBox="0 0 12.7 12.7"><defs><linearGradient id="c"><stop offset="0" stop-color="#1a1a1a"/><stop offset="1" stop-color="#666"/></linearGradient><linearGradient id="b"><stop offset="0" stop-color="#00000c"/><stop offset="1" stop-color="#0b0000" stop-opacity="0"/></linearGradient><linearGradient id="a"><stop offset="0" stop-color="#22241c"/><stop offset="1" stop-color="#1a1a1a" stop-opacity="0"/></linearGradient></defs><path d="M3.649 1.64a1.073 1.073 0 0 0-1.076 1.077v2.087c0 .05.008.098.014.143v5.173c0 .52.423.94.944.94h5.655a.939.939 0 0 0 .94-.94l-.005-7.536a.939.939 0 0 0-.937-.944zM4 5.925h.944v1.884H4zm1.885 0h.944v.94h-.944zm1.886 0h.942v1.884H7.77zM5.885 7.809h.944v1.883h-.944zM4 8.752h.944v.94H4zm3.77 0h.943v.94H7.77z" fill="#1a1a1a"/></svg>

<?xml version="1.0" encoding="UTF-8" standalone="no"?>
<svg
   xmlns:dc="http://purl.org/dc/elements/1.1/"
   xmlns:cc="http://creativecommons.org/ns#"
   xmlns:rdf="http://www.w3.org/1999/02/22-rdf-syntax-ns#"
   xmlns:svg="http://www.w3.org/2000/svg"
   xmlns="http://www.w3.org/2000/svg"
   xmlns:sodipodi="http://sodipodi.sourceforge.net/DTD/sodipodi-0.dtd"
   xmlns:inkscape="http://www.inkscape.org/namespaces/inkscape"
   width="24"
   height="24"
   viewBox="0 0 12.7 12.7"
   version="1.1"
   id="svg21"
   sodipodi:docname="auth-smartcard.svg"
   inkscape:version="0.92.4 (5da689c313, 2019-01-14)">
  <metadata
     id="metadata25">
    <rdf:RDF>
      <cc:Work
         rdf:about="">
        <dc:format>image/svg+xml</dc:format>
        <dc:type
           rdf:resource="http://purl.org/dc/dcmitype/StillImage" />
        <dc:title></dc:title>
      </cc:Work>
    </rdf:RDF>
  </metadata>
  <sodipodi:namedview
     pagecolor="#ffffff"
     bordercolor="#666666"
     borderopacity="1"
     objecttolerance="10"
     gridtolerance="10"
     guidetolerance="10"
     inkscape:pageopacity="0"
     inkscape:pageshadow="2"
     inkscape:window-width="1138"
     inkscape:window-height="480"
     id="namedview23"
     showgrid="false"
     inkscape:zoom="9.8333333"
     inkscape:cx="1.0677966"
     inkscape:cy="12"
     inkscape:window-x="0"
     inkscape:window-y="25"
     inkscape:window-maximized="0"
     inkscape:current-layer="svg21" />
  <defs
     id="defs17">
    <linearGradient
       id="c">
      <stop
         offset="0"
         stop-color="#1a1a1a"
         id="stop2" />
      <stop
         offset="1"
         stop-color="#666"
         id="stop4" />
    </linearGradient>
    <linearGradient
       id="b">
      <stop
         offset="0"
         stop-color="#00000c"
         id="stop7" />
      <stop
         offset="1"
         stop-color="#0b0000"
         stop-opacity="0"
         id="stop9" />
    </linearGradient>
    <linearGradient
       id="a">
      <stop
         offset="0"
         stop-color="#22241c"
         id="stop12" />
      <stop
         offset="1"
         stop-color="#1a1a1a"
         stop-opacity="0"
         id="stop14" />
    </linearGradient>
  </defs>
  <path
     d="M 3.649,1.64 A 1.073,1.073 0 0 0 2.573,2.717 v 2.087 c 0,0.05 0.008,0.098 0.014,0.143 v 5.173 c 0,0.52 0.423,0.94 0.944,0.94 h 5.655 a 0.939,0.939 0 0 0 0.94,-0.94 L 10.121,2.584 A 0.939,0.939 0 0 0 9.184,1.64 Z M 4,5.925 H 4.944 V 7.809 H 4 Z m 1.885,0 h 0.944 v 0.94 H 5.885 Z m 1.886,0 H 8.713 V 7.809 H 7.77 Z M 5.885,7.809 H 6.829 V 9.692 H 5.885 Z M 4,8.752 h 0.944 v 0.94 H 4 Z m 3.77,0 h 0.943 v 0.94 H 7.77 Z"
     id="path19"
     inkscape:connector-curvature="0"
     style="fill:#1a1a1a" />
</svg>
